X:1
T:The Sunny Banks
R:reel
M:4/4
L:1/8
K:D
|:AF~F2 dAcA|(3Bcd AF GFGB|AF~F2 dAcA|1 (3Bcd AF DEFG:|2 BGAF D3e|]
|fded cAAe|fdef gfge|fded cA~A2|BGAG FDDe|
|fded cAAe|fdef gbag|fded cA~A2|(3Bcd AG FDDB|